!!!COM: Bach, Johann Sebastian
!!!CDT: 1685/02/21/-1750/07/28/
!!!OTL@@DE:	Wo soll ich fliehen hin
!!!SCT: BWV 148/6
!!!PC#:	25
!!!AGN: chorale
**harm	**kern	**kern	**kern	**kern
*	*ICvox	*ICvox	*ICvox	*ICvox
*	*Ibass	*Itenor	*Ialto	*Isoprn
*	*I"Bass	*I"Tenor	*I"Alto	*I"Soprano
*	*	*oclefC4	*oclefC3	*oclefC1
*	*clefF4	*clefGv2	*clefG2	*clefG2
*k[b-e-a-]	*k[b-e-a-]	*k[b-e-a-]	*k[b-e-a-]	*k[b-e-a-]
*f:dor	*f:dor	*f:dor	*f:dor	*f:dor
*M4/4	*M4/4	*M4/4	*M4/4	*M4/4
*met(c)	*met(c)	*met(c)	*met(c)	*met(c)
*MM100	*MM100	*MM100	*MM100	*MM100
i	4F	4A-	4c	4f
=1	=1	=1	=1	=1
i6	4A-	4c	4c	4f
ii	8GL	8B-L	8dL	8gL
viio6	8GJ	8B-J	8eJ	8gJ
i	4F	4c	4f	4a-
iv6	4D-	4d-	4f	4b-
=2	=2	=2	=2	=2
V;	2C;	2G;	2e;	2cc;
.	4r	4ry	4ry	4r
III	4AA-	4A-	4e-	4cc
=3	=3	=3	=3	=3
III6	8CL	8A-L	8e-L	8ccL
vi%7	8DJ	8A-J	8fJ	8ccJ
V65	4E	4G	4g	4b-
i	4F	4c	4f	4a-
IV	4BB-	4d-	4f	4b-
=4	=4	=4	=4	=4
V;	2C;	2c;	2e;	2g;
.	4r	4ry	4ry	4r
V	4C	4c	4e	4g
=5	=5	=5	=5	=5
i	4F	4c	4f	4a-
A-:V6	4G	4B-	4e-X	4b-
I	4A-	4A-	4e-	4cc
vi	4F	4A-	4f	4cc
=6	=6	=6	=6	=6
ii65	4D-	4A-	4f	4b-
V	4E-	4G	4e-	4b-
I;	4AA-;	4A-;	4e-;	4cc;
I	4AA-	4A-	4e-	4cc
=7	=7	=7	=7	=7
IV	4D-	4A-	4f	4a-
ii	8BB-L	8d-L	8fL	8b-L
viio6	8BB-J	8d-J	8gJ	8b-J
vi	4F	4c	4a-	4cc
IV	4D-	4f	4a-	4dd-
=8	=8	=8	=8	=8
V(64)	4E-	4e-	4a-	4cc
V7	4E-	4d-	4g	4b-
I;	4AA-;	4c;	4e-;	4a-;
I	4A-	4e-	4a-	4cc
=9	=9	=9	=9	=9
V6	4G	4e-	4b-	4ee-
I	4A-	4e-	4a-	4cc
vi	4F	4f	4a-	4cc
I6	4C	4e-	4a-	4cc
=10	=10	=10	=10	=10
V65/V	4DnX	4f	4a-	4b-
V/V	4BB-	4d	4f	4b-
V;	4E-;	4e-;	4g;	4b-;
V6	8GL	8e-L	8gL	8b-L
f:ii%2	8FJ	8d-J	8gJ	8b-J
=11	=11	=11	=11	=11
V6	4E	4c	4g	4cc
V7	4C	4c	4e	4b-
i	4F	4c	4f	4a-
iv6	4D-	4B-	4f	4b-
=12	=12	=12	=12	=12
ii%65	4BB-	4d-	4f	4g
V7	4C	4B-	4e	4g
I;	4FF;	4A;	4c;	4f;
==	==	==	==	==
*-	*-	*-	*-	*-
!!!YOR1: 371 vierstimmige Choralges&auml;nge von Johann Sebastian Bach, 
!!!YOR2: 4th ed. by Alfred D&ouml;rffel (Leipzig: Breitkopf und H&auml;rtel, 
!!!YOR2: c.1875). 178 pp. Plate "V.A.10".  reprint: J.S. Bach, 371 Four-Part 
!!!YOR4: Chorales (New York: Associated Music Publishers, Inc., c.1940).
!!!SMS: B&H, 4th ed, Alfred D&ouml;rffel, c.1875, plate V.A.10
!!!EED:  Craig Stuart Sapp
!!!EEV:  2009/05/22
